X: 1
T: Montgomery Bell
M: 3/4
L: 1/8
R: waltz
K: Amaj
e2|:EA AE BA|c3c BA|FB BA Bc|ec Bc BA|
EA AE BA|c3c BA|EG Bd cB|1 A3B AF:|2 A2 (a2 a)g||
f3f af| ec Ac BA|EG BE GB| Ac eA aA|
f3f af| ec Ac BA|EG Bd cB|1 A2 (a2 a)g:|2 A2 ||
